src/browser/themes/shared/zen-icons/lin/essential-add.svg

#filter dumbComments emptyLines substitution
# This Source Code Form is subject to the terms of the Mozilla Public
# License, v. 2.0. If a copy of the MPL was not distributed with this
# file, You can obtain one at http://mozilla.org/MPL/2.0/.
<svg xmlns="http://www.w3.org/2000/svg" height="18" width="18" viewBox="0 0 18 18"><g stroke-linecap="round" stroke-width="1.5" fill="none" stroke="context-fill" stroke-opacity="context-fill-opacity" stroke-linejoin="round" class="nc-icon-wrapper"><path d="M8.743,7.769l-.946-.315-.316-.947c-.102-.306-.609-.306-.711,0l-.316,.947-.946,.315c-.153,.051-.257,.194-.257,.356s.104,.305,.257,.356l.946,.315,.316,.947c.051,.153,.194,.256,.355,.256s.305-.104,.355-.256l.316-.947,.946-.315c.153-.051,.257-.194,.257-.356s-.104-.305-.257-.356Z" fill="context-fill" data-color="color-2" data-stroke="none" stroke="none"></path><path d="M15.144,9.976c.52-.995,.856-2.117,.856-3.367,.008-2.12-1.704-3.846-3.826-3.859-1.277,.016-2.464,.66-3.174,1.72-.709-1.061-1.896-1.704-3.173-1.72-2.123,.013-3.834,1.739-3.826,3.859,0,4.826,4.959,7.794,6.529,8.613,.297,.155,.644,.155,.941,0,.114-.059,.249-.133,.395-.214"></path><path d="M15.658,12.99l-1.263-.421-.421-1.263c-.137-.408-.812-.408-.949,0l-.421,1.263-1.263,.421c-.204,.068-.342,.259-.342,.474s.138,.406,.342,.474l1.263,.421,.421,1.263c.068,.204,.26,.342,.475,.342s.406-.138,.475-.342l.421-1.263,1.263-.421c.204-.068,.342-.259,.342-.474s-.138-.406-.342-.474Z" fill="context-fill" data-color="color-2" data-stroke="none" stroke="none"></path><circle cx="12.25" cy="6.25" r=".75" fill="context-fill" data-color="color-2" data-stroke="none" stroke="none"></circle></g></svg>

#filter dumbComments emptyLines substitution
# This Source Code Form is subject to the terms of the Mozilla Public
# License, v. 2.0. If a copy of the MPL was not distributed with this
# file, You can obtain one at http://mozilla.org/MPL/2.0/.
<svg height="18" width="18" viewBox="0 0 18 18" id="svg3" fill="context-fill" fill-opacity="context-fill-opacity" xmlns="http://www.w3.org/2000/svg" xmlns:svg="http://www.w3.org/2000/svg"><g stroke-linecap="round" stroke-width="1.5" fill="none" stroke="context-fill" stroke-opacity="context-fill-opacity" stroke-linejoin="round" class="nc-icon-wrapper" id="g3"><path id="circle3" style="fill:context-fill;stroke:none" d="M 13,6.25 A 0.75,0.75 0 0 1 12.25,7 0.75,0.75 0 0 1 11.5,6.25 0.75,0.75 0 0 1 12.25,5.5 0.75,0.75 0 0 1 13,6.25 Z m 2.658,6.74 -1.263,-0.421 -0.421,-1.263 c -0.137,-0.408 -0.812,-0.408 -0.949,0 l -0.421,1.263 -1.263,0.421 c -0.204,0.068 -0.342,0.259 -0.342,0.474 0,0.215 0.138,0.406 0.342,0.474 l 1.263,0.421 0.421,1.263 c 0.068,0.204 0.26,0.342 0.475,0.342 0.215,0 0.406,-0.138 0.475,-0.342 l 0.421,-1.263 1.263,-0.421 c 0.204,-0.068 0.342,-0.259 0.342,-0.474 0,-0.215 -0.138,-0.406 -0.342,-0.474 z M 15.144,9.976 C 15.664,8.981 16,7.859 16,6.609 16.008,4.489 14.296,2.763 12.174,2.75 10.897,2.766 9.71,3.41 9,4.47 8.291,3.409 7.104,2.766 5.827,2.75 3.704,2.763 1.993,4.489 2.001,6.609 c 0,4.826 4.959,7.794 6.529,8.613 0.297,0.155 0.644,0.155 0.941,0 0.114,-0.059 0.249,-0.133 0.395,-0.214 M 8.743,7.769 7.797,7.454 7.481,6.507 C 7.379,6.201 6.872,6.201 6.77,6.507 L 6.454,7.454 5.508,7.769 C 5.355,7.82 5.251,7.963 5.251,8.125 c 0,0.162 0.104,0.305 0.257,0.356 L 6.454,8.796 6.77,9.743 C 6.821,9.896 6.964,9.999 7.125,9.999 7.286,9.999 7.43,9.895 7.48,9.743 L 7.796,8.796 8.742,8.481 C 8.895,8.43 8.999,8.287 8.999,8.125 8.999,7.963 8.895,7.82 8.742,7.769 Z"/></g></svg>
